storage/app/icons/phosphoricons/fill/rows-plus-top-fill.svg

<svg xmlns="http://www.w3.org/2000/svg" fill="currentColor" viewBox="0 0 256 256"><path d="M224 176v24a16 16 0 0 1-16 16H48a16 16 0 0 1-16-16v-24a16 16 0 0 1 16-16h160a16 16 0 0 1 16 16m-16-88H48a16 16 0 0 0-16 16v24a16 16 0 0 0 16 16h160a16 16 0 0 0 16-16v-24a16 16 0 0 0-16-16M104 48h16v16a8 8 0 0 0 16 0V48h16a8 8 0 0 0 0-16h-16V16a8 8 0 0 0-16 0v16h-16a8 8 0 0 0 0 16"/></svg>

<svg xmlns="http://www.w3.org/2000/svg" viewBox="0 0 256 256" fill="currentColor"><path d="M224,176v24a16,16,0,0,1-16,16H48a16,16,0,0,1-16-16V176a16,16,0,0,1,16-16H208A16,16,0,0,1,224,176ZM208,88H48a16,16,0,0,0-16,16v24a16,16,0,0,0,16,16H208a16,16,0,0,0,16-16V104A16,16,0,0,0,208,88ZM104,48h16V64a8,8,0,0,0,16,0V48h16a8,8,0,0,0,0-16H136V16a8,8,0,0,0-16,0V32H104a8,8,0,0,0,0,16Z"/></svg>
